Newaita/actions/32/gnumeric-autosum.svg

<svg height="32" viewBox="0 0 32 32" width="32" xmlns="http://www.w3.org/2000/svg"><path d="m23.152344 2.894531c-.03125 0-.058594.003907-.089844.007813h-13.800781c-.480469 0-.921875.261718-1.152344.679687s-.21875.929688.035156 1.335938l6.1875 9.898437-7.523437 12.539063c-.242188.40625-.25.914062-.015625 1.328125.234375.410156.671875.667968 1.144531.667968h15.125c.03125.003907.058594.003907.089844.003907h1.324218c.367188 0 .660157-.292969.660157-.660157v-.488281c.015625-.117187.015625-.234375 0-.347656v-3.132813c0-.367187-.292969-.660156-.660157-.660156h-1.324218c-.367188 0-.660156.292969-.660156.660156v1.992188h-12.226563l6.738281-11.238281c.257813-.425781.25-.957031-.011718-1.375l-5.355469-8.570313h10.855469v1.992188c0 .367187.292968.660156.660156.660156h1.324218c.367188 0 .660157-.292969.660157-.660156v-3.136719c.015625-.117187.015625-.230469 0-.347656v-.484375c0-.367188-.292969-.664063-.660157-.664063zm0 0" fill="#424242"/></svg>

<?xml version="1.0" encoding="UTF-8"?>
<svg xmlns="http://www.w3.org/2000/svg" xmlns:xlink="http://www.w3.org/1999/xlink" width="32px" height="32px" viewBox="0 0 32 32" version="1.1">
<g id="surface1">
<path style=" stroke:none;fill-rule:nonzero;fill:rgb(25.882354%,25.882354%,25.882354%);fill-opacity:1;" d="M 23.152344 2.894531 C 23.121094 2.894531 23.09375 2.898438 23.0625 2.902344 L 9.261719 2.902344 C 8.78125 2.902344 8.339844 3.164062 8.109375 3.582031 C 7.878906 4 7.890625 4.511719 8.144531 4.917969 L 14.332031 14.816406 L 6.808594 27.355469 C 6.566406 27.761719 6.558594 28.269531 6.792969 28.683594 C 7.027344 29.09375 7.464844 29.351562 7.9375 29.351562 L 23.0625 29.351562 C 23.09375 29.355469 23.121094 29.355469 23.152344 29.355469 L 24.476562 29.355469 C 24.84375 29.355469 25.136719 29.0625 25.136719 28.695312 L 25.136719 28.207031 C 25.152344 28.089844 25.152344 27.972656 25.136719 27.859375 L 25.136719 24.726562 C 25.136719 24.359375 24.84375 24.066406 24.476562 24.066406 L 23.152344 24.066406 C 22.785156 24.066406 22.492188 24.359375 22.492188 24.726562 L 22.492188 26.71875 L 10.265625 26.71875 L 17.003906 15.480469 C 17.261719 15.054688 17.253906 14.523438 16.992188 14.105469 L 11.636719 5.535156 L 22.492188 5.535156 L 22.492188 7.527344 C 22.492188 7.894531 22.785156 8.1875 23.152344 8.1875 L 24.476562 8.1875 C 24.84375 8.1875 25.136719 7.894531 25.136719 7.527344 L 25.136719 4.390625 C 25.152344 4.273438 25.152344 4.160156 25.136719 4.042969 L 25.136719 3.558594 C 25.136719 3.191406 24.84375 2.894531 24.476562 2.894531 Z M 23.152344 2.894531 "/>
</g>
</svg>
